assets/1. F-P/O button blood type/Color/O.Button.(blood.Type)-color.svg

<svg width="100%" height="100%" viewBox="0 0 32 32" fill="none" xmlns="http://www.w3.org/2000/svg">
<g filter="url(#filter0_ii_18590_2436)">
<rect x="2.09033" y="1.6875" width="27.875" height="27.875" rx="3.6" fill="url(#paint0_linear_18590_2436)"/>
<rect x="2.09033" y="1.6875" width="27.875" height="27.875" rx="3.6" fill="url(#paint1_radial_18590_2436)"/>
</g>
<g filter="url(#filter1_f_18590_2436)">
<path d="M28.2778 4.1875V27.0625" stroke="url(#paint2_linear_18590_2436)" stroke-width="1.5" stroke-linecap="round"/>
</g>
<g filter="url(#filter2_f_18590_2436)">
<path d="M5.5542 3.5H27.3354" stroke="url(#paint3_linear_18590_2436)" stroke-width="1.5" stroke-linecap="round"/>
</g>
<g filter="url(#filter3_f_18590_2436)">
<path d="M10.0477 12.6016C10.0477 9.3008 12.7235 6.625 16.0243 6.625C19.3251 6.625 22.0009 9.3008 22.0009 12.6016V18.6484C22.0009 21.9492 19.3251 24.625 16.0243 24.625C12.7235 24.625 10.0477 21.9492 10.0477 18.6484V12.6016ZM16.0243 9.625C14.3804 9.625 13.0477 10.9577 13.0477 12.6016V18.6484C13.0477 20.2923 14.3804 21.625 16.0243 21.625C17.6682 21.625 19.0009 20.2923 19.0009 18.6484V12.6016C19.0009 10.9577 17.6682 9.625 16.0243 9.625Z" fill="#EF2B54"/>
</g>
<g filter="url(#filter4_ii_18590_2436)">
<path d="M10.0477 12.6016C10.0477 9.3008 12.7235 6.625 16.0243 6.625C19.3251 6.625 22.0009 9.3008 22.0009 12.6016V18.6484C22.0009 21.9492 19.3251 24.625 16.0243 24.625C12.7235 24.625 10.0477 21.9492 10.0477 18.6484V12.6016ZM16.0243 9.625C14.3804 9.625 13.0477 10.9577 13.0477 12.6016V18.6484C13.0477 20.2923 14.3804 21.625 16.0243 21.625C17.6682 21.625 19.0009 20.2923 19.0009 18.6484V12.6016C19.0009 10.9577 17.6682 9.625 16.0243 9.625Z" fill="#FCF2FF"/>
</g>
<defs>
<filter id="filter0_ii_18590_2436" x="2.09033" y="0.6875" width="28.875" height="28.875" filterUnits="userSpaceOnUse" color-interpolation-filters="sRGB">
<feFlood flood-opacity="0" result="BackgroundImageFix"/>
<feBlend mode="normal" in="SourceGraphic" in2="BackgroundImageFix" result="shape"/>
<feColorMatrix in="SourceAlpha" type="matrix" values="0 0 0 0 0 0 0 0 0 0 0 0 0 0 0 0 0 0 127 0" result="hardAlpha"/>
<feOffset dx="1" dy="-1"/>
<feGaussianBlur stdDeviation="1.5"/>
<feComposite in2="hardAlpha" operator="arithmetic" k2="-1" k3="1"/>
<feColorMatrix type="matrix" values="0 0 0 0 0.901961 0 0 0 0 0.133333 0 0 0 0 0.337255 0 0 0 1 0"/>
<feBlend mode="normal" in2="shape" result="effect1_innerShadow_18590_2436"/>
<feColorMatrix in="SourceAlpha" type="matrix" values="0 0 0 0 0 0 0 0 0 0 0 0 0 0 0 0 0 0 127 0" result="hardAlpha"/>
<feOffset dy="-1"/>
<feGaussianBlur stdDeviation="1.5"/>
<feComposite in2="hardAlpha" operator="arithmetic" k2="-1" k3="1"/>
<feColorMatrix type="matrix" values="0 0 0 0 0.85098 0 0 0 0 0.168627 0 0 0 0 0.231373 0 0 0 1 0"/>
<feBlend mode="normal" in2="effect1_innerShadow_18590_2436" result="effect2_innerShadow_18590_2436"/>
</filter>
<filter id="filter1_f_18590_2436" x="25.5278" y="1.4375" width="5.5" height="28.375" filterUnits="userSpaceOnUse" color-interpolation-filters="sRGB">
<feFlood flood-opacity="0" result="BackgroundImageFix"/>
<feBlend mode="normal" in="SourceGraphic" in2="BackgroundImageFix" result="shape"/>
<feGaussianBlur stdDeviation="1" result="effect1_foregroundBlur_18590_2436"/>
</filter>
<filter id="filter2_f_18590_2436" x="2.8042" y="0.75" width="27.2812" height="5.5" filterUnits="userSpaceOnUse" color-interpolation-filters="sRGB">
<feFlood flood-opacity="0" result="BackgroundImageFix"/>
<feBlend mode="normal" in="SourceGraphic" in2="BackgroundImageFix" result="shape"/>
<feGaussianBlur stdDeviation="1" result="effect1_foregroundBlur_18590_2436"/>
</filter>
<filter id="filter3_f_18590_2436" x="9.04773" y="5.625" width="13.9531" height="20" filterUnits="userSpaceOnUse" color-interpolation-filters="sRGB">
<feFlood flood-opacity="0" result="BackgroundImageFix"/>
<feBlend mode="normal" in="SourceGraphic" in2="BackgroundImageFix" result="shape"/>
<feGaussianBlur stdDeviation="0.5" result="effect1_foregroundBlur_18590_2436"/>
</filter>
<filter id="filter4_ii_18590_2436" x="9.64773" y="6.225" width="12.7531" height="18.8" filterUnits="userSpaceOnUse" color-interpolation-filters="sRGB">
<feFlood flood-opacity="0" result="BackgroundImageFix"/>
<feBlend mode="normal" in="SourceGraphic" in2="BackgroundImageFix" result="shape"/>
<feColorMatrix in="SourceAlpha" type="matrix" values="0 0 0 0 0 0 0 0 0 0 0 0 0 0 0 0 0 0 127 0" result="hardAlpha"/>
<feOffset dx="-0.4" dy="0.4"/>
<feGaussianBlur stdDeviation="0.375"/>
<feComposite in2="hardAlpha" operator="arithmetic" k2="-1" k3="1"/>
<feColorMatrix type="matrix" values="0 0 0 0 0.913725 0 0 0 0 0.886275 0 0 0 0 0.968627 0 0 0 1 0"/>
<feBlend mode="normal" in2="shape" result="effect1_innerShadow_18590_2436"/>
<feColorMatrix in="SourceAlpha" type="matrix" values="0 0 0 0 0 0 0 0 0 0 0 0 0 0 0 0 0 0 127 0" result="hardAlpha"/>
<feOffset dx="0.4" dy="-0.4"/>
<feGaussianBlur stdDeviation="0.2"/>
<feComposite in2="hardAlpha" operator="arithmetic" k2="-1" k3="1"/>
<feColorMatrix type="matrix" values="0 0 0 0 1 0 0 0 0 0.988235 0 0 0 0 1 0 0 0 1 0"/>
<feBlend mode="normal" in2="effect1_innerShadow_18590_2436" result="effect2_innerShadow_18590_2436"/>
</filter>
<linearGradient id="paint0_linear_18590_2436" x1="16.0278" y1="5.26201" x2="16.0278" y2="38.5147" gradientUnits="userSpaceOnUse">
<stop stop-color="#FF4D91"/>
<stop offset="1" stop-color="#F34A5F"/>
</linearGradient>
<radialGradient id="paint1_radial_18590_2436" cx="0" cy="0" r="1" gradientUnits="userSpaceOnUse" gradientTransform="translate(27.7466 3.78125) rotate(136.771) scale(2.14444 2.50466)">
<stop stop-color="#FF77B1"/>
<stop offset="1" stop-color="#FF77B1" stop-opacity="0"/>
</radialGradient>
<linearGradient id="paint2_linear_18590_2436" x1="28.7778" y1="4.1875" x2="28.7778" y2="27.0625" gradientUnits="userSpaceOnUse">
<stop stop-color="#FF66A5"/>
<stop offset="1" stop-color="#FF5B6B"/>
</linearGradient>
<linearGradient id="paint3_linear_18590_2436" x1="28.4917" y1="3.75002" x2="2.96045" y2="3.75002" gradientUnits="userSpaceOnUse">
<stop stop-color="#FF60A3"/>
<stop offset="1" stop-color="#FF5495"/>
</linearGradient>
</defs>
</svg>

<svg width="100%" height="100%" viewBox="0 0 32 32" xmlns="http://www.w3.org/2000/svg"><g filter="url(#a)"><rect width="27.875" height="27.875" x="2.09" y="1.688" fill="url(#b)" rx="3.6"/><rect width="27.875" height="27.875" x="2.09" y="1.688" fill="url(#c)" rx="3.6"/></g><g filter="url(#d)"><path stroke="url(#e)" stroke-linecap="round" stroke-width="1.5" d="M28.278 4.188v22.875"/></g><g filter="url(#f)"><path stroke="url(#g)" stroke-linecap="round" stroke-width="1.5" d="M5.554 3.5h21.781"/></g><g filter="url(#h)"><path fill="#EF2B54" d="M10.048 12.602a5.977 5.977 0 1 1 11.953 0v6.046a5.977 5.977 0 1 1-11.953 0zm5.976-2.977a2.977 2.977 0 0 0-2.976 2.977v6.046a2.977 2.977 0 0 0 5.953 0v-6.046a2.977 2.977 0 0 0-2.977-2.977"/></g><g filter="url(#i)"><path fill="#FCF2FF" d="M10.048 12.602a5.977 5.977 0 1 1 11.953 0v6.046a5.977 5.977 0 1 1-11.953 0zm5.976-2.977a2.977 2.977 0 0 0-2.976 2.977v6.046a2.977 2.977 0 0 0 5.953 0v-6.046a2.977 2.977 0 0 0-2.977-2.977"/></g><defs><filter id="a" width="28.875" height="28.875" x="2.09" y=".688" color-interpolation-filters="sRGB" filterUnits="userSpaceOnUse"><feFlood flood-opacity="0" result="BackgroundImageFix"/><feBlend in="SourceGraphic" in2="BackgroundImageFix" result="shape"/><feColorMatrix in="SourceAlpha" result="hardAlpha" values="0 0 0 0 0 0 0 0 0 0 0 0 0 0 0 0 0 0 127 0"/><feOffset dx="1" dy="-1"/><feGaussianBlur stdDeviation="1.5"/><feComposite in2="hardAlpha" k2="-1" k3="1" operator="arithmetic"/><feColorMatrix values="0 0 0 0 0.901961 0 0 0 0 0.133333 0 0 0 0 0.337255 0 0 0 1 0"/><feBlend in2="shape" result="effect1_innerShadow_18590_2436"/><feColorMatrix in="SourceAlpha" result="hardAlpha" values="0 0 0 0 0 0 0 0 0 0 0 0 0 0 0 0 0 0 127 0"/><feOffset dy="-1"/><feGaussianBlur stdDeviation="1.5"/><feComposite in2="hardAlpha" k2="-1" k3="1" operator="arithmetic"/><feColorMatrix values="0 0 0 0 0.85098 0 0 0 0 0.168627 0 0 0 0 0.231373 0 0 0 1 0"/><feBlend in2="effect1_innerShadow_18590_2436" result="effect2_innerShadow_18590_2436"/></filter><filter id="d" width="5.5" height="28.375" x="25.528" y="1.438" color-interpolation-filters="sRGB" filterUnits="userSpaceOnUse"><feFlood flood-opacity="0" result="BackgroundImageFix"/><feBlend in="SourceGraphic" in2="BackgroundImageFix" result="shape"/><feGaussianBlur result="effect1_foregroundBlur_18590_2436" stdDeviation="1"/></filter><filter id="f" width="27.281" height="5.5" x="2.804" y=".75" color-interpolation-filters="sRGB" filterUnits="userSpaceOnUse"><feFlood flood-opacity="0" result="BackgroundImageFix"/><feBlend in="SourceGraphic" in2="BackgroundImageFix" result="shape"/><feGaussianBlur result="effect1_foregroundBlur_18590_2436" stdDeviation="1"/></filter><filter id="h" width="13.953" height="20" x="9.048" y="5.625" color-interpolation-filters="sRGB" filterUnits="userSpaceOnUse"><feFlood flood-opacity="0" result="BackgroundImageFix"/><feBlend in="SourceGraphic" in2="BackgroundImageFix" result="shape"/><feGaussianBlur result="effect1_foregroundBlur_18590_2436" stdDeviation=".5"/></filter><filter id="i" width="12.753" height="18.8" x="9.648" y="6.225" color-interpolation-filters="sRGB" filterUnits="userSpaceOnUse"><feFlood flood-opacity="0" result="BackgroundImageFix"/><feBlend in="SourceGraphic" in2="BackgroundImageFix" result="shape"/><feColorMatrix in="SourceAlpha" result="hardAlpha" values="0 0 0 0 0 0 0 0 0 0 0 0 0 0 0 0 0 0 127 0"/><feOffset dx="-.4" dy=".4"/><feGaussianBlur stdDeviation=".375"/><feComposite in2="hardAlpha" k2="-1" k3="1" operator="arithmetic"/><feColorMatrix values="0 0 0 0 0.913725 0 0 0 0 0.886275 0 0 0 0 0.968627 0 0 0 1 0"/><feBlend in2="shape" result="effect1_innerShadow_18590_2436"/><feColorMatrix in="SourceAlpha" result="hardAlpha" values="0 0 0 0 0 0 0 0 0 0 0 0 0 0 0 0 0 0 127 0"/><feOffset dx=".4" dy="-.4"/><feGaussianBlur stdDeviation=".2"/><feComposite in2="hardAlpha" k2="-1" k3="1" operator="arithmetic"/><feColorMatrix values="0 0 0 0 1 0 0 0 0 0.988235 0 0 0 0 1 0 0 0 1 0"/><feBlend in2="effect1_innerShadow_18590_2436" result="effect2_innerShadow_18590_2436"/></filter><linearGradient id="b" x1="16.028" x2="16.028" y1="5.262" y2="38.515" gradientUnits="userSpaceOnUse"><stop stop-color="#FF4D91"/><stop offset="1" stop-color="#F34A5F"/></linearGradient><linearGradient id="e" x1="28.778" x2="28.778" y1="4.188" y2="27.063" gradientUnits="userSpaceOnUse"><stop stop-color="#FF66A5"/><stop offset="1" stop-color="#FF5B6B"/></linearGradient><linearGradient id="g" x1="28.492" x2="2.96" y1="3.75" y2="3.75" gradientUnits="userSpaceOnUse"><stop stop-color="#FF60A3"/><stop offset="1" stop-color="#FF5495"/></linearGradient><radialGradient id="c" cx="0" cy="0" r="1" gradientTransform="matrix(-1.56249 1.46876 -1.71548 -1.82495 27.747 3.781)" gradientUnits="userSpaceOnUse"><stop stop-color="#FF77B1"/><stop offset="1" stop-color="#FF77B1" stop-opacity="0"/></radialGradient></defs></svg>
